assets/account.svg

<svg data-v-7960c707="" xmlns="http://www.w3.org/2000/svg" viewBox="0 0 24 24" fill="none"
    aria-labelledby="box" role="presentation" class="iconbase" stroke="currentColor">
    <title id="box" lang="en">box icon</title>
    <g fill="currentColor">
        <svg data-v-457837af="" width="24" height="24" viewBox="0 0 24 24" fill="none"
            xmlns="http://www.w3.org/2000/svg">
            <path
                d="M16.04 15.2598C16.8685 15.2598 17.54 14.5882 17.54 13.7598C17.54 12.9313 16.8685 12.2598 16.04 12.2598C15.2116 12.2598 14.54 12.9313 14.54 13.7598C14.54 14.5882 15.2116 15.2598 16.04 15.2598Z"
                stroke="currentColor" stroke-width="1.5"></path>
            <path
                d="M19.21 7.49914L19.9 7.43914C19.9 6.90914 19.9 6.11914 19.9 5.80914C19.9 5.36093 19.7219 4.93107 19.405 4.61413C19.0881 4.29719 18.6582 4.11914 18.21 4.11914H5.25C4.65235 4.12179 4.08007 4.36106 3.6584 4.7846C3.23673 5.20815 2.99999 5.78148 3 6.37914V17.6191C2.99999 18.2168 3.23673 18.7901 3.6584 19.2137C4.08007 19.6372 4.65235 19.8765 5.25 19.8791H19.25C19.7047 19.8819 20.1424 19.7067 20.4694 19.3908C20.7965 19.075 20.9869 18.6436 21 18.1891V9.18914C20.9935 8.96061 20.9421 8.7356 20.8486 8.52696C20.7551 8.31832 20.6215 8.13015 20.4552 7.9732C20.289 7.81625 20.0934 7.6936 19.8798 7.61226C19.6661 7.53092 19.4385 7.49248 19.21 7.49914V7.49914Z"
                stroke="currentColor" stroke-width="1.5"></path>
            <path d="M19.8999 7.5H6.62988" stroke="currentColor" stroke-width="1.5"></path>
        </svg>
    </g>
</svg>

<?xml version="1.0" encoding="utf-8"?>
<svg version="1.1" id="Calque_1" xmlns="http://www.w3.org/2000/svg"
    xmlns:xlink="http://www.w3.org/1999/xlink" x="0px" y="0px"
    viewBox="0 0 24 24" style="enable-background:new 0 0 24 24;" xml:space="preserve">
<style type="text/css">
	.st0{fill:none;stroke:#000000;stroke-width:1.5;}
</style>
<g>
	<path class="st0" d="M16.04,15.26c0.83,0,1.5-0.67,1.5-1.5c0-0.83-0.67-1.5-1.5-1.5c-0.83,0-1.5,0.67-1.5,1.5
		C14.54,14.59,15.21,15.26,16.04,15.26z"/>
	<path class="st0" d="M19.21,7.5l0.69-0.06c0-0.53,0-1.32,0-1.63c0-0.45-0.18-0.88-0.49-1.2s-0.75-0.49-1.2-0.49H5.25
		c-0.6,0-1.17,0.24-1.59,0.67C3.24,5.21,3,5.78,3,6.38v11.24c0,0.6,0.24,1.17,0.66,1.59c0.42,0.42,0.99,0.66,1.59,0.67h14
		c0.45,0,0.89-0.17,1.22-0.49c0.33-0.32,0.52-0.75,0.53-1.2v-9c-0.01-0.23-0.06-0.45-0.15-0.66s-0.23-0.4-0.39-0.55
		c-0.17-0.16-0.36-0.28-0.58-0.36C19.67,7.53,19.44,7.49,19.21,7.5L19.21,7.5z"/>
	<path class="st0" d="M19.9,7.5H6.63"/>
</g>
</svg>
